ix/home-hashtag_bold.svg

<svg viewBox="0 0 24 24" fill="none" xmlns="http://www.w3.org/2000/svg" height="1em" width="1em">
  <path d="M12.6992 16.8798H13.3992C14.5492 16.8798 15.4892 15.9398 15.4892 14.7898V14.0898H12.6992V16.8798Z" fill="#292D32"/>
  <path d="M8.50977 14.7898C8.50977 15.9398 9.44977 16.8798 10.5998 16.8798H11.2998V14.0898H8.50977V14.7898Z" fill="#292D32"/>
  <path d="M8.50977 12.0002V12.7002H11.2998V9.91016H10.5998C9.44977 9.91016 8.50977 10.8502 8.50977 12.0002Z" fill="#292D32"/>
  <path d="M20.03 6.82165L14.28 2.79165C12.71 1.69165 10.31 1.75165 8.8 2.92165L3.79 6.83165C2.78 7.61165 2 9.21165 2 10.4716V17.3716C2 19.9216 4.07 22.0016 6.61 22.0016H17.38C19.92 22.0016 21.99 19.9316 21.99 17.3816V10.6016C22 9.25165 21.13 7.59165 20.03 6.82165ZM16.88 14.7916C16.88 16.7116 15.31 18.2816 13.39 18.2816H10.6C8.68 18.2816 7.11 16.7216 7.11 14.7916V12.0016C7.11 10.0816 8.68 8.51165 10.6 8.51165H13.39C15.31 8.51165 16.88 10.0716 16.88 12.0016V14.7916Z" fill="#292D32"/>
  <path d="M13.3992 9.91016H12.6992V12.7002H15.4892V12.0002C15.4892 10.8502 14.5492 9.91016 13.3992 9.91016Z" fill="#292D32"/>
</svg>

<svg viewBox="0 0 24 24" fill="none" xmlns="http://www.w3.org/2000/svg" height="1em" width="1em">
  <path d="M12.7 16.88h.7c1.15 0 2.09-.94 2.09-2.09v-.7H12.7v2.79Zm-4.19-2.09c0 1.15.94 2.09 2.09 2.09h.7v-2.79H8.51v.7Zm0-2.79v.7h2.79V9.91h-.7c-1.15 0-2.09.94-2.09 2.09Z" fill="#292D32"/>
  <path d="m20.03 6.822-5.75-4.03c-1.57-1.1-3.97-1.04-5.48.13l-5.01 3.91C2.78 7.612 2 9.212 2 10.472v6.9c0 2.55 2.07 4.63 4.61 4.63h10.77a4.62 4.62 0 0 0 4.61-4.62v-6.78c.01-1.35-.86-3.01-1.96-3.78Zm-3.15 7.97a3.5 3.5 0 0 1-3.49 3.49H10.6c-1.92 0-3.49-1.56-3.49-3.49v-2.79a3.5 3.5 0 0 1 3.49-3.49h2.79c1.92 0 3.49 1.56 3.49 3.49v2.79Z" fill="#292D32"/>
  <path d="M13.4 9.91h-.7v2.79h2.79V12c0-1.15-.94-2.09-2.09-2.09Z" fill="#292D32"/>
</svg>
